X:1
T:Title
%%score { ( 1 3 ) | ( 2 4 ) }
L:1/8
Q:1/4=128
M:12/8
K:F
V:1 treble nm="Grand Piano"
V:3 treble 
V:2 bass 
V:4 bass 
V:1
 [FAcf]3 [FBd]3 [FAc]6 | z6 [GB]6 | [EG]2 [EA] [Ec]2 [DEB] [CEA]3 [B,EG]3 | F2 E F2 G A6 | %4
w: Howard~E.~Smith * *||||
 [FAcf]3 [FBd]3 [FAc]6 | z6 [GB]6 | [EG]2 [EA] [Ec]2 [DEB] [CEA]3 [B,EG]3 | [A,CF]6- [A,CF]3 z3 | %8
w: ||||
 F6 A6 | c3 d3 c6 | F6 A6 | A3 G3 G6 | F6 A6 | c3 d3 c6 | f6 c6 | G3 A3 .[A,C]3 z3 |] %16
w: ||||||||
V:2
 [F,,F,]3 [F,B,D]3 [F,A,C]6 | [D,,D,]3 [D,^F,A,]3 [G,,G,]3 [G,B,]3 | %2
 [C,B,]2 [C,A,] [C,G,]2 C, C,3 C,3 | [F,A,C]2 [F,G,C] [F,A,C]2 [F,B,C] [F,CF]6 | %4
 [F,,F,]3 [F,B,D]3 [F,A,C]6 | [D,,D,]3 [D,^F,A,]3 [G,,G,]3 [G,B,]3 | %6
 [C,B,]2 [C,A,] [C,G,]2 C, C,3 C,3 | F,3 C,3 F,,3 z3 | %8
 F,,2 [F,,F,] [F,,F,]2 [C,,C,] [F,,F,]2 [F,,F,] [F,,F,]2 [G,,G,] | %9
 [A,,A,]2 [A,,A,] [B,,B,]2 [B,,B,] [A,,A,]2 [A,,A,] [A,,A,]2 [G,,G,] | %10
 [F,,F,]2 [F,,F,] [F,,F,]2 [C,,C,] [F,,F,]2 [F,,F,] [F,,F,]2 [A,,A,] | %11
 [G,,G,]2 [G,,G,] [G,,G,]2 [G,,G,] [C,,C,]2 [C,,C,] [C,,C,]2 [C,,C,] | %12
 [D,,D,]2 [D,,D,] [D,,D,]2 [C,,C,] [F,,F,]2 [F,,F,] [F,,F,]2 [G,,G,] | %13
 [A,,A,]2 [A,,A,] [B,,B,]2 [B,,B,] [A,,A,]2 [A,,A,] [A,,A,]2 [A,,A,] | %14
 [B,,,B,,]2 [C,,C,] [D,,D,]2 [E,,E,] [F,,F,]2 [G,,G,] [A,,A,]2 [B,,B,] | %15
 [C,C]2 [C,C] [C,,C,]2 [C,,C,] z2 B, A,3 |] %16
V:3
 x12 | [^FAd]3 [DFA]3 z3 D3 | x12 | x12 | x12 | [^Fd]3 [DFA]3 z3 D3 | x12 | x12 | %8
 [F,A,C]2 [A,C] [A,C]2 [B,EG] [CF]2 [CF] [CF]2 [CEB] | %9
 [CF]2 [CF] [DF]2 [DF] [CF]2 [CF] [CF]2 [B,E] | [A,C]2 [A,C] [A,C]2 [B,EG] [CF]2 [CF] [CF]2 [CF] | %11
 [=B,F]2 [B,F] [B,F]2 [B,F] [_B,E]2 [B,E] [B,E]2 [B,E] | %12
 [A,D]2 [A,D] [A,D]2 [B,EG] [CF]2 [CF] [CF]2 [CEB] | [CF]2 [CF] [DF]2 [DF] [CF]2 [CF] [CF]2 [CF] | %14
 [FBd]2 [FBd] [FBd]2 [EGBd] [FA]2 [EB] [FA]2 [DFA] | E2 E [CE]2 [CE] [F,F]2- [F,-DF-] [F,CF]3 |] %16
V:4
 x12 | x12 | x12 | x12 | x12 | x12 | x12 | x12 | x12 | x12 | x12 | x12 | x12 | x12 | x12 | %15
 z6 F,,6 |] %16

